X: 1
T: Juice of Barley
C: Henry Purcell (1690)
B: Cecil Sharp (1916)
R: jig
M: 6/8
L: 1/8
K: Am
e3 |\
| "Am"A2A e2d | "C"efg G2G | "F"A2A "C"e2c | "Dm"A3 "Am"c3 |\
| "F"A2A "G7"e2d | "C"efg G2G | "F"A2A "C"e2c | "Am"A3 :|
|: "G7"B2 |\
| "C"c2c c2B/c/ | "G"d2d "G7"d2d | "C"e2e "F"a2g | "C"e3g3 |\
| "F"c2c "C/E"c2B/c/ | "Dm"d2d d>ef | "C"e>dc "G"BcG | "Am"A3 :|
